!!!OTL: Seidenweberlied (3-43), S. 129
!!!id: P1015
**kern
*clefG2
*k[f#]
*G:
{8d
8d
=1
4g
4g
4g
4g
=2
2b
4a}
=3
{8d
8f#
=4
4a
4a
4a
8g
8a
=5
2b}
4r
=6
{4g
=7
8g
8g
4g
8g
8b
8a
8g
=8
4e
8f#
8g
4a}
=9
{8dd
8cc
=10
8b
8a
8g
8a
4b
8a
8a
=11
2g}
4r
==
*-
!!!minrhy: 8
!!!meters: 4/4 ]  ZZ[4
!!!cut: Seidenweberlied (3-43), S. 129
!!!reg: Lothringen
!!!trd: PINCK, Louis: Verklingende Weisen, Bd3, Metz 1933
!!!rhy1: XX  X_X_X_X_  X__X_
!!!rhy2: XX  X_X_X_XX  X__0_
!!!key: P1015  08  G 4/4 ]  ZZ[4
!!!mod: HEPTATONIK IONISCH]  AMBITUS[8
!!!kad: 2321
!!!akz: 1132_223_11-62_331_
!!!fot: 'a__b__aw_a__
!!!for: 'a__b__c__d__
!!!fok: '/__/__Va_\__
!! PHRAS[AUFTAKTIG]
!!!fkt: Berufslied
!! LOTH VKL
!! PR[55] 2K[1] 2G[10] 3K[0] 3G[1] 4A[4] 4Ü[0] 5A[3] 6K[0] 6G[0]
!! 7K[0] 7G[0] 8A[0] MEHR[0] SI[20] ABS[71] SR[11] SP[8]
!! ST[28] 2k[6] 2g[15] 3k[0] 3g[3] 4d[0] 4ü[0] 5d[1] 6k[0] 6g[0]
!! 7k[0] 7g[0] 8d[0] mehr[0] si[25] dm[-5] sr[21] sp[4]
!! 1F[7] 2F[7] 3F[58] 4F[17] LF[0] 2P[4] 3P[3] 4P[4] TRI[4] DF[7] AB[72]
!! TF[0] U3K[0] U3[0] U4[7] U4Ü[0] U5[1] U6K[0] U6[1] U7K[18] U7[0]
!! N1[29] N2K[0] N2[18] N3K[21] N3[0] N4[0] N4Ü[0] N5[4] N6K[0] N6[0]
!!!n7k: 0] N7[0] O1[0] O2K[0] O2[0] O3K[0] O3[0] HÖ[0
